X: 5
T: The Little Diamond
R: polka
M: 2/4
L: 1/8
K: Dmaj
|: B^A |A>B AF | DE FD | A>B AF | GF EF/E/ |
DE F/F/G | AB c/c/d | e/f/e/d/ ce | dA :|
|: de |f^e/f/ g=e | fd c>B | Ad cd | fe e^d/e/ |
fd g>e | fd c>B | Ag ec | d2- :|


Tune 604	Setting 13621

